; generated by Slic3r 1.2.9 on 2019-03-26 at 22:19:30

; external perimeters extrusion width = 0.40mm
; perimeters extrusion width = 0.67mm
; infill extrusion width = 0.67mm
; solid infill extrusion width = 0.67mm
; top infill extrusion width = 0.67mm

M107
M190 S70 ; set bed temperature
M104 S190 ; set temperature
G28 ; home all axes
G29;
G1 Z5 F5000 ; lift nozzle

M109 S190 ; wait for temperature to be reached
G21 ; set units to millimeters
G90 ; use absolute coordinates
M82 ; use absolute distances for extrusion
G92 E0
G1 Z0.350 F6000.000
G1 E-6.00000 F2400.00000
G92 E0
G1 X72.415 Y44.253 F6000.000
G1 E6.00000 F2400.00000
G1 X74.168 Y42.774 E6.15641 F1800.000
G1 X76.320 Y41.981 E6.31281
G1 X77.500 Y41.875 E6.39360
G1 X92.500 Y41.875 E7.41655
G1 X94.759 Y42.272 E7.57296
G1 X96.747 Y43.415 E7.72937 F1800.000
G1 X98.226 Y45.168 E7.88577
G1 X99.019 Y47.320 E8.04218
G1 X99.125 Y48.500 E8.12296
G1 X99.125 Y88.500 E10.85085
G1 X98.728 Y90.759 E11.00726
G1 X97.585 Y92.747 E11.16366
G1 X95.832 Y94.226 E11.32007
G1 X93.680 Y95.019 E11.47648
G1 X92.500 Y95.125 E11.55726
G1 X77.500 Y95.125 E12.58022
G1 X75.241 Y94.728 E12.73662
G1 X73.253 Y93.585 E12.89303
G1 X71.774 Y91.832 E13.04944
G1 X70.981 Y89.680 E13.20584
G1 X70.875 Y88.500 E13.28662
G1 X70.875 Y48.500 E16.01451
G1 X71.272 Y46.241 E16.17092
G1 X72.386 Y44.305 E16.32323
G1 F4800
G1 X74.168 Y42.774 E15.20701
G1 F4800
G1 X76.320 Y41.981 E14.11762
G1 F4800
G1 X77.500 Y41.875 E13.55497
G1 F4800
G1 X83.672 Y41.875 E10.62323
G1 E10.32323 F2400.00000
G92 E0
G1 X74.651 Y46.489 F6000.000
G1 E6.00000 F2400.00000
G1 X76.076 Y45.063 E6.13748 F1800.000
G1 X93.924 Y45.063 E7.35461
G1 X95.937 Y47.076 E7.54878
G1 X95.937 Y89.924 E10.47084 F1800.000
G1 X93.924 Y91.937 E10.66501
G1 X76.076 Y91.937 E11.88214
G1 X74.063 Y89.924 E12.07631
G1 X74.063 Y47.076 E14.99837
G1 X74.609 Y46.531 E15.05097
G1 X75.093 Y46.930 F6000.000
G1 X76.335 Y45.688 E15.17080 F1800.000
G1 X93.665 Y45.688 E16.35262
G1 X95.312 Y47.335 E16.51149 F1800.000
G1 X95.312 Y89.665 E19.39825
G1 X93.665 Y91.312 E19.55712
G1 X76.335 Y91.312 E20.73894
G1 X74.688 Y89.665 E20.89781
G1 X74.688 Y47.335 E23.78456
G1 X75.050 Y46.973 E23.81951
G1 X75.535 Y47.372 F6000.000
G1 X76.594 Y46.313 E23.92169 F1800.000
G1 X93.406 Y46.313 E25.06821
G1 X94.687 Y47.594 E25.19177
G1 X94.687 Y89.406 E28.04322 F1800.000
G1 X93.406 Y90.687 E28.16679
G1 X76.594 Y90.687 E29.31331
G1 X75.313 Y89.406 E29.43687
G1 X75.313 Y47.594 E32.28833
G1 X75.492 Y47.415 E32.30562
G1 X75.977 Y47.814 F6000.000
G1 X76.853 Y46.938 E32.39015 F1800.000
G1 X93.147 Y46.938 E33.50136
G1 X94.062 Y47.853 E33.58962 F1800.000
G1 X94.062 Y89.147 E36.40577
G1 X93.147 Y90.062 E36.49403
G1 X76.853 Y90.062 E37.60525
G1 X75.938 Y89.147 E37.69351
G1 X75.938 Y47.858 E40.50930
G1 X76.563 Y48.112 F6000.000
G1 X77.112 Y47.563 E40.56226 F1800.000
G1 X92.888 Y47.563 E41.63817
G1 X93.437 Y48.112 E41.69113
G1 X93.437 Y88.888 E44.47197 F1800.000
G1 X92.888 Y89.437 E44.52493
G1 X77.112 Y89.437 E45.60084
G1 X76.563 Y88.888 E45.65380
G1 X76.563 Y48.172 E48.43055
G1 X77.188 Y48.371 F6000.000
G1 X77.371 Y48.188 E48.44820 F1800.000
G1 X92.629 Y48.188 E49.48881
G1 X92.812 Y48.371 E49.50646
G1 X92.812 Y88.629 E52.25200
G1 X92.629 Y88.812 E52.26965
G1 X77.371 Y88.812 E53.31026
G1 X77.188 Y88.629 E53.32792
G1 X77.188 Y48.431 E56.06936
G1 F4800
G1 X77.371 Y48.188 E55.92485
G1 F4800
G1 X89.066 Y48.188 E50.36936
G1 E50.06936 F2400.00000
G92 E0
G1 X92.150 Y88.150 F6000.000
G1 E6.00000 F2400.00000
G1 X77.850 Y88.150 E6.97522 F1800.000
G1 X77.850 Y48.850 E9.65537
G1 X92.150 Y48.850 E10.63060
G1 X92.150 Y88.090 E13.30666
G1 X91.804 Y87.950 F6000.000
G1 X91.525 Y87.525 F6000.000
G1 X78.475 Y87.525 E14.19665 F1800.000
G1 X78.475 Y49.475 E16.79157
G1 X91.525 Y49.475 E17.68156
G1 X91.525 Y87.465 E20.27239
G1 X90.900 Y86.900 F6000.000
G1 X79.100 Y86.900 E21.07715 F1800.000
G1 X79.100 Y50.100 E23.58684
G1 X90.900 Y50.100 E24.39160
