; generated by Slic3r 1.2.9 on 2019-03-26 at 22:19:30

; external perimeters extrusion width = 0.40mm
; perimeters extrusion width = 0.67mm
; infill extrusion width = 0.67mm
; solid infill extrusion width = 0.67mm
; top infill extrusion width = 0.67mm

M107
M190 S70 ; set bed temperature
M104 S190 ; set temperature
G28 ; home all axes
G29;
G1 Z5 F5000 ; lift nozzle

M109 S190 ; wait for temperature to be reached
G21 ; set units to millimeters
G90 ; use absolute coordinates
M82 ; use absolute distances for extrusion
G92 E0
G1 Z0.350 F6000.000
G1 E-6.00000 F2400.00000
G92 E0
G1 X72.415 Y44.253 F6000.000
G1 E6.00000 F2400.00000
G1 X74.168 Y42.774 E6.15641 F1800.000
G1 X76.320 Y41.981 E6.31281
G1 X77.500 Y41.875 E6.39360
G1 X92.500 Y41.875 E7.41655
G1 X94.759 Y42.272 E7.57296
G1 X96.747 Y43.415 E7.72937 F1800.000
G1 X98.226 Y45.168 E7.88577
G1 X99.019 Y47.320 E8.04218
G1 X99.125 Y48.500 E8.12296
G1 X99.125 Y88.500 E10.85085
G1 X98.728 Y90.759 E11.00726
G1 X97.585 Y92.747 E11.16366
G1 X95.832 Y94.226 E11.32007
G1 X93.680 Y95.019 E11.47648
G1 X92.500 Y95.125 E11.55726
G1 X77.500 Y95.125 E12.58022
G1 X75.241 Y94.728 E12.73662
G1 X73.253 Y93.585 E12.89303
G1 X71.774 Y91.832 E13.04944
G1 X70.981 Y89.680 E13.20584
G1 X70.875 Y88.500 E13.28662
G1 X70.875 Y48.500 E16.01451
G1 X71.272 Y46.241 E16.17092
G1 X72.386 Y44.305 E16.32323
G1 F4800
G1 X74.168 Y42.774 E15.20701
G1 F4800
G1 X76.320 Y41.981 E14.11762
G1 F4800
G1 X77.500 Y41.875 E13.55497
G1 F4800
G1 X83.672 Y41.875 E10.62323
G1 E10.32323 F2400.00000
G92 E0
G1 X74.651 Y46.489 F6000.000
G1 E6.00000 F2400.00000
G1 X76.076 Y45.063 E6.13748 F1800.000
G1 X93.924 Y45.063 E7.35461
G1 X95.937 Y47.076 E7.54878
G1 X95.937 Y89.924 E10.47084 F1800.000
G1 X93.924 Y91.937 E10.66501
G1 X76.076 Y91.937 E11.88214
G1 X74.063 Y89.924 E12.07631
G1 X74.063 Y47.076 E14.99837
G1 X74.609 Y46.531 E15.05097
G1 X75.093 Y46.930 F6000.000
G1 X76.335 Y45.688 E15.17080 F1800.000
G1 X93.665 Y45.688 E16.35262
G1 X95.312 Y47.335 E16.51149 F1800.000
G1 X95.312 Y89.665 E19.39825
G1 X93.665 Y91.312 E19.55712
G1 X76.335 Y91.312 E20.73894
G1 X74.688 Y89.665 E20.89781
G1 X74.688 Y47.335 E23.78456
G1 X75.050 Y46.973 E23.81951
G1 X75.535 Y47.372 F6000.000
G1 X76.594 Y46.313 E23.92169 F1800.000
G1 X93.406 Y46.313 E25.06821
G1 X94.687 Y47.594 E25.19177
G1 X94.687 Y89.406 E28.04322 F1800.000
G1 X93.406 Y90.687 E28.16679
G1 X76.594 Y90.687 E29.31331
G1 X75.313 Y89.406 E29.43687
G1 X75.313 Y47.594 E32.28833
G1 X75.492 Y47.415 E32.30562
G1 X75.977 Y47.814 F6000.000
G1 X76.853 Y46.938 E32.39015 F1800.000
G1 X93.147 Y46.938 E33.50136
G1 X94.062 Y47.853 E33.58962 F1800.000
G1 X94.062 Y89.147 E36.40577
G1 X93.147 Y90.062 E36.49403
G1 X76.853 Y90.062 E37.60525
G1 X75.938 Y89.147 E37.69351
G1 X75.938 Y47.858 E40.50930
G1 X76.563 Y48.112 F6000.000
G1 X77.112 Y47.563 E40.56226 F1800.000
G1 X92.888 Y47.563 E41.63817
G1 X93.437 Y48.112 E41.69113
G1 X93.437 Y88.888 E44.47197 F1800.000
G1 X92.888 Y89.437 E44.52493
G1 X77.112 Y89.437 E45.60084
G1 X76.563 Y88.888 E45.65380
G1 X76.563 Y48.172 E48.43055
G1 X77.188 Y48.371 F6000.000
G1 X77.371 Y48.188 E48.44820 F1800.000
G1 X92.629 Y48.188 E49.48881
G1 X92.812 Y48.371 E49.50646
G1 X92.812 Y88.629 E52.25200
G1 X92.629 Y88.812 E52.26965
G1 X77.371 Y88.812 E53.31026
G1 X77.188 Y88.629 E53.32792
G1 X77.188 Y48.431 E56.06936
G1 F4800
G1 X77.371 Y48.188 E55.92485
G1 F4800
G1 X89.066 Y48.188 E50.36936
G1 E50.06936 F2400.00000
G92 E0
G1 X92.150 Y88.150 F6000.000
G1 E6.00000 F2400.00000
G1 X77.850 Y88.150 E6.97522 F1800.000
G1 X77.850 Y48.850 E9.65537
G1 X92.150 Y48.850 E10.63060
G1 X92.150 Y88.090 E13.30666
G1 X91.804 Y87.950 F6000.000
G1 X91.525 Y87.525 F6000.000
G1 X78.475 Y87.525 E14.19665 F1800.000
G1 X78.475 Y49.475 E16.79157
G1 X91.525 Y49.475 E17.68156
G1 X91.525 Y87.465 E20.27239
G1 X90.900 Y86.900 F6000.000
G1 X79.100 Y86.900 E21.07715 F1800.000
G1 X79.100 Y50.100 E23.58684
G1 X90.900 Y50.100 E24.39160
G1 X90.900 Y86.840 E26.89720
G1 X79.478 Y86.217 F6000.000
G1 X79.783 Y86.522 E26.92696 F1800.000
G1 X80.677 Y86.522 E26.98860
G1 X79.478 Y85.323 E27.10554
G1 X79.478 Y84.429 E27.16719
G1 X81.571 Y86.522 E27.37131
G1 X82.465 Y86.522 E27.43296
G1 X79.478 Y83.535 E27.72426
G1 X79.478 Y82.641 E27.78590
G1 X83.359 Y86.522 E28.16439
G1 X84.252 Y86.522 E28.22603
G1 X79.478 Y81.748 E28.69170
G1 X79.478 Y80.854 E28.75335
G1 X85.146 Y86.522 E29.30619
G1 X86.040 Y86.522 E29.36784
G1 X79.478 Y79.960 E30.00787
G1 X79.478 Y79.066 E30.06951
G1 X86.934 Y86.522 E30.79672
G1 X87.827 Y86.522 E30.85837
G1 X79.478 Y78.173 E31.67276
G1 X79.478 Y77.279 E31.73440
G1 X88.721 Y86.522 E32.63597
G1 X89.615 Y86.522 E32.69762
G1 X79.478 Y76.385 E33.68637
G1 X79.478 Y75.491 E33.74802
G1 X90.495 Y86.508 E34.82263
G1 X90.522 Y85.641 E34.88248
G1 X79.478 Y74.597 E35.95967
G1 X79.478 Y73.704 E36.02132
G1 X90.522 Y84.747 E37.09851
G1 X90.522 Y83.853 E37.16016
G1 X79.478 Y72.810 E38.23735
G1 X79.478 Y71.916 E38.29899
G1 X90.522 Y82.959 E39.37619
G1 X90.522 Y82.066 E39.43783
G1 X79.478 Y71.022 E40.51502
G1 X79.478 Y70.129 E40.57667
G1 X90.522 Y81.172 E41.65386
G1 X90.522 Y80.278 E41.71551
G1 X79.478 Y69.235 E42.79270
G1 X79.478 Y68.341 E42.85435
G1 X90.522 Y79.384 E43.93154
G1 X90.522 Y78.491 E43.99318
G1 X79.478 Y67.447 E45.07038
G1 X79.478 Y66.553 E45.13202
G1 X90.522 Y77.597 E46.20921
G1 X90.522 Y76.703 E46.27086
G1 X79.478 Y65.660 E47.34805
G1 X79.478 Y64.766 E47.40970
G1 X90.522 Y75.809 E48.48689
G1 X90.522 Y74.915 E48.54854
G1 X79.478 Y63.872 E49.62573
G1 X79.478 Y62.978 E49.68737
G1 X90.522 Y74.022 E50.76457
G1 X90.522 Y73.128 E50.82621
G1 X79.478 Y62.085 E51.90340
G1 X79.478 Y61.191 E51.96505
G1 X90.522 Y72.234 E53.04224
G1 X90.522 Y71.340 E53.10389
G1 X79.478 Y60.297 E54.18108
G1 X79.478 Y59.403 E54.24273
G1 X90.522 Y70.447 E55.31992
G1 X90.522 Y69.553 E55.38156
G1 X79.478 Y58.509 E56.45876
G1 X79.478 Y57.616 E56.52040
G1 X90.522 Y68.659 E57.59759
G1 X90.522 Y67.765 E57.65924
G1 X79.478 Y56.722 E58.73643
G1 X79.478 Y55.828 E58.79808
G1 X90.522 Y66.871 E59.87527
G1 X90.522 Y65.978 E59.93692
G1 X79.478 Y54.934 E61.01411
G1 X79.478 Y54.041 E61.07576
G1 X90.522 Y65.084 E62.15295
G1 X90.522 Y64.190 E62.21459
G1 X79.478 Y53.147 E63.29179
G1 X79.478 Y52.253 E63.35343
G1 X90.522 Y63.296 E64.43062
G1 X90.522 Y62.403 E64.49227
G1 X79.478 Y51.359 E65.56946
G1 X79.505 Y50.492 E65.62931
G1 X90.522 Y61.509 E66.70393
G1 X90.522 Y60.615 E66.76557
G1 X80.385 Y50.478 E67.75433
G1 X81.279 Y50.478 E67.81597
G1 X90.522 Y59.721 E68.71755
G1 X90.522 Y58.827 E68.77919
G1 X82.173 Y50.478 E69.59358
G1 X83.066 Y50.478 E69.65523
G1 X90.522 Y57.934 E70.38244
G1 X90.522 Y57.040 E70.44409
G1 X83.960 Y50.478 E71.08412
G1 X84.854 Y50.478 E71.14576
G1 X90.522 Y56.146 E71.69861
G1 X90.522 Y55.252 E71.76026
G1 X85.748 Y50.478 E72.22593
G1 X86.641 Y50.478 E72.28757
G1 X90.522 Y54.359 E72.66606
G1 X90.522 Y53.465 E72.72771
G1 X87.535 Y50.478 E73.01901
G1 X88.429 Y50.478 E73.08066
G1 X90.522 Y52.571 E73.28478
G1 X90.522 Y51.677 E73.34643
G1 X89.323 Y50.478 E73.46337
G1 X90.217 Y50.478 E73.52502
G1 X90.522 Y50.783 E73.55478
M104 S180 ; set temperature
M140 S65 ; wait for bed temperature to be reached
G1 Z0.550 F6000.000
G1 X91.179 Y87.179 F6000.000
G1 X78.821 Y87.179 E74.03901 F6000.000
G1 X78.821 Y49.821 E75.50284
G1 X91.179 Y49.821 E75.98707
G1 X91.179 Y87.119 E77.44854
G1 X91.807 Y87.807 F6000.000
G1 X78.193 Y87.807 E77.98201 F6000.000
G1 X78.193 Y49.193 E79.49508
G1 X91.807 Y49.193 E80.02855
G1 X91.807 Y87.747 E81.53926
G1 X92.300 Y88.300 F6000.000
G1 X77.700 Y88.300 E81.86438 F3000.000
G1 X77.700 Y48.700 E82.74621
G1 X92.300 Y48.700 E83.07133
G1 X92.300 Y88.240 E83.95183
G1 X91.954 Y88.100 F6000.000
G1 X90.492 Y86.798 F6000.000
G1 X90.798 Y86.492 E83.96899 F1200.000
G1 X90.798 Y85.594 E84.00453
G1 X89.594 Y86.798 E84.07196
G1 X88.696 Y86.798 E84.10749
G1 X90.798 Y84.696 E84.22518
G1 X90.798 Y83.798 E84.26072
G1 X87.798 Y86.798 E84.42866
G1 X86.901 Y86.798 E84.46420
G1 X90.798 Y82.901 E84.68240
G1 X90.798 Y82.003 E84.71794
G1 X86.003 Y86.798 E84.98640
G1 X85.105 Y86.798 E85.02194
G1 X90.798 Y81.105 E85.34066
G1 X90.798 Y80.208 E85.37620
G1 X84.208 Y86.798 E85.74518
G1 X83.310 Y86.798 E85.78072
G1 X90.798 Y79.310 E86.19996
G1 X90.798 Y78.412 E86.23550
G1 X82.412 Y86.798 E86.70500
G1 X81.514 Y86.798 E86.74054
G1 X90.798 Y77.514 E87.26030
G1 X90.798 Y76.617 E87.29584
G1 X80.617 Y86.798 E87.86586
G1 X79.719 Y86.798 E87.90140
G1 X90.798 Y75.719 E88.52168
G1 X90.798 Y74.821 E88.55722
G1 X79.202 Y86.418 E89.20645
G1 X79.202 Y85.520 E89.24199
G1 X90.798 Y73.923 E89.89122
G1 X90.798 Y73.026 E89.92675
G1 X79.202 Y84.622 E90.57598
G1 X79.202 Y83.724 E90.61152
G1 X90.798 Y72.128 E91.26075
G1 X90.798 Y71.230 E91.29629
G1 X79.202 Y82.827 E91.94552
G1 X79.202 Y81.929 E91.98106
G1 X90.798 Y70.332 E92.63029
G1 X90.798 Y69.435 E92.66583
G1 X79.202 Y81.031 E93.31506
G1 X79.202 Y80.133 E93.35060
G1 X90.798 Y68.537 E93.99983
G1 X90.798 Y67.639 E94.03537
G1 X79.202 Y79.236 E94.68460
G1 X79.202 Y78.338 E94.72014
G1 X90.798 Y66.742 E95.36937
G1 X90.798 Y65.844 E95.40490
G1 X79.202 Y77.440 E96.05413
G1 X79.202 Y76.543 E96.08967
G1 X90.798 Y64.946 E96.73890
G1 X90.798 Y64.048 E96.77444
G1 X79.202 Y75.645 E97.42367
G1 X79.202 Y74.747 E97.45921
G1 X90.798 Y63.151 E98.10844
G1 X90.798 Y62.253 E98.14398
G1 X79.202 Y73.849 E98.79321
G1 X79.202 Y72.952 E98.82875
G1 X90.798 Y61.355 E99.47798
G1 X90.798 Y60.457 E99.51352
G1 X79.202 Y72.054 E100.16275
G1 X79.202 Y71.156 E100.19829
G1 X90.798 Y59.560 E100.84752
G1 X90.798 Y58.662 E100.88306
G1 X79.202 Y70.258 E101.53229
G1 X79.202 Y69.361 E101.56782
G1 X90.798 Y57.764 E102.21705
G1 X90.798 Y56.866 E102.25259
G1 X79.202 Y68.463 E102.90182
G1 X79.202 Y67.565 E102.93736
G1 X90.798 Y55.969 E103.58659
G1 X90.798 Y55.071 E103.62213
G1 X79.202 Y66.667 E104.27136
G1 X79.202 Y65.770 E104.30690
G1 X90.798 Y54.173 E104.95613
G1 X90.798 Y53.276 E104.99167
G1 X79.202 Y64.872 E105.64090
G1 X79.202 Y63.974 E105.67644
G1 X90.798 Y52.378 E106.32567
G1 X90.798 Y51.480 E106.36121
G1 X79.202 Y63.077 E107.01044
G1 X79.202 Y62.179 E107.04598
G1 X90.798 Y50.582 E107.69520
G1 X90.281 Y50.202 E107.72062
G1 X79.202 Y61.281 E108.34090
G1 X79.202 Y60.383 E108.37644
G1 X89.383 Y50.202 E108.94646
G1 X88.486 Y50.202 E108.98200
G1 X79.202 Y59.486 E109.50175
G1 X79.202 Y58.588 E109.53729
G1 X87.588 Y50.202 E110.00679
G1 X86.690 Y50.202 E110.04233
G1 X79.202 Y57.690 E110.46157
G1 X79.202 Y56.792 E110.49711
G1 X85.792 Y50.202 E110.86609
G1 X84.895 Y50.202 E110.90163
G1 X79.202 Y55.895 E111.22035
G1 X79.202 Y54.997 E111.25588
G1 X83.997 Y50.202 E111.52434
G1 X83.099 Y50.202 E111.55988
G1 X79.202 Y54.099 E111.77808
G1 X79.202 Y53.201 E111.81362
G1 X82.201 Y50.202 E111.98156
G1 X81.304 Y50.202 E112.01710
G1 X79.202 Y52.304 E112.13478
G1 X79.202 Y51.406 E112.17032
G1 X80.406 Y50.202 E112.23774
G1 X79.508 Y50.202 E112.27328
G1 X79.202 Y50.508 E112.29044
G1 Z0.750 F6000.000
G1 X91.179 Y87.179 F6000.000
G1 X78.821 Y87.179 E112.77467 F6000.000
G1 X78.821 Y49.821 E114.23850
G1 X91.179 Y49.821 E114.72273
G1 X91.179 Y87.119 E116.18420
G1 X91.807 Y87.807 F6000.000
G1 X78.193 Y87.807 E116.71767 F6000.000
G1 X78.193 Y49.193 E118.23074
G1 X91.807 Y49.193 E118.76421
G1 X91.807 Y87.747 E120.27492
G1 X92.300 Y88.300 F6000.000
G1 X77.700 Y88.300 E120.60004 F3000.000
G1 X77.700 Y48.700 E121.48187
G1 X92.300 Y48.700 E121.80700
G1 X92.300 Y88.240 E122.68749
G1 X91.954 Y88.100 F6000.000
G1 X79.508 Y86.798 F6000.000
G1 X79.202 Y86.492 E122.70465 F1200.000
G1 X79.202 Y85.594 E122.74019
G1 X80.406 Y86.798 E122.80761
G1 X81.304 Y86.798 E122.84315
G1 X79.202 Y84.696 E122.96083
G1 X79.202 Y83.799 E122.99637
G1 X82.201 Y86.798 E123.16431
G1 X83.099 Y86.798 E123.19985
G1 X79.202 Y82.901 E123.41805
G1 X79.202 Y82.003 E123.45359
G1 X83.997 Y86.798 E123.72205
G1 X84.895 Y86.798 E123.75759
G1 X79.202 Y81.105 E124.07631
G1 X79.202 Y80.208 E124.11185
G1 X85.792 Y86.798 E124.48082
G1 X86.690 Y86.798 E124.51636
G1 X79.202 Y79.310 E124.93560
G1 X79.202 Y78.412 E124.97114
G1 X87.588 Y86.798 E125.44064
G1 X88.486 Y86.798 E125.47618
G1 X79.202 Y77.514 E125.99594
G1 X79.202 Y76.617 E126.03148
G1 X89.383 Y86.798 E126.60149
G1 X90.281 Y86.798 E126.63703
G1 X79.202 Y75.719 E127.25731
G1 X79.202 Y74.821 E127.29285
G1 X90.798 Y86.418 E127.94208
G1 X90.798 Y85.520 E127.97762
G1 X79.202 Y73.923 E128.62685
G1 X79.202 Y73.026 E128.66239
G1 X90.798 Y84.622 E129.31162
G1 X90.798 Y83.724 E129.34715
G1 X79.202 Y72.128 E129.99638
G1 X79.202 Y71.230 E130.03192
G1 X90.798 Y82.827 E130.68115
G1 X90.798 Y81.929 E130.71669
G1 X79.202 Y70.333 E131.36592
G1 X79.202 Y69.435 E131.40146
G1 X90.798 Y81.031 E132.05069
G1 X90.798 Y80.134 E132.08623
G1 X79.202 Y68.537 E132.73546
G1 X79.202 Y67.639 E132.77100
G1 X90.798 Y79.236 E133.42023
G1 X90.798 Y78.338 E133.45577
G1 X79.202 Y66.742 E134.10500
G1 X79.202 Y65.844 E134.14054
G1 X90.798 Y77.440 E134.78977
G1 X90.798 Y76.543 E134.82531
G1 X79.202 Y64.946 E135.47454
G1 X79.202 Y64.048 E135.51007
G1 X90.798 Y75.645 E136.15930
G1 X90.798 Y74.747 E136.19484
G1 X79.202 Y63.151 E136.84407
G1 X79.202 Y62.253 E136.87961
G1 X90.798 Y73.849 E137.52884
G1 X90.798 Y72.952 E137.56438
G1 X79.202 Y61.355 E138.21361
G1 X79.202 Y60.457 E138.24915
G1 X90.798 Y72.054 E138.89838
G1 X90.798 Y71.156 E138.93392
G1 X79.202 Y59.560 E139.58315
G1 X79.202 Y58.662 E139.61869
G1 X90.798 Y70.258 E140.26792
G1 X90.798 Y69.361 E140.30346
G1 X79.202 Y57.764 E140.95269
G1 X79.202 Y56.867 E140.98823
G1 X90.798 Y68.463 E141.63746
G1 X90.798 Y67.565 E141.67299
G1 X79.202 Y55.969 E142.32222
G1 X79.202 Y55.071 E142.35776
G1 X90.798 Y66.668 E143.00699
G1 X90.798 Y65.770 E143.04253
G1 X79.202 Y54.173 E143.69176
G1 X79.202 Y53.276 E143.72730
G1 X90.798 Y64.872 E144.37653
G1 X90.798 Y63.974 E144.41207
G1 X79.202 Y52.378 E145.06130
G1 X79.202 Y51.480 E145.09684
G1 X90.798 Y63.077 E145.74607
G1 X90.798 Y62.179 E145.78161
G1 X79.202 Y50.582 E146.43084
G1 X79.719 Y50.202 E146.45626
G1 X90.798 Y61.281 E147.07654
G1 X90.798 Y60.383 E147.11208
G1 X80.617 Y50.202 E147.68210
G1 X81.514 Y50.202 E147.71763
G1 X90.798 Y59.486 E148.23739
G1 X90.798 Y58.588 E148.27293
G1 X82.412 Y50.202 E148.74243
G1 X83.310 Y50.202 E148.77797
G1 X90.798 Y57.690 E149.19721
G1 X90.798 Y56.792 E149.23275
G1 X84.208 Y50.202 E149.60173
G1 X85.105 Y50.202 E149.63727
G1 X90.798 Y55.895 E149.95599
G1 X90.798 Y54.997 E149.99153
G1 X86.003 Y50.202 E150.26000
G1 X86.901 Y50.202 E150.29553
G1 X90.798 Y54.099 E150.51374
G1 X90.798 Y53.202 E150.54928
G1 X87.798 Y50.202 E150.71722
G1 X88.696 Y50.202 E150.75276
G1 X90.798 Y52.304 E150.87044
G1 X90.798 Y51.406 E150.90598
G1 X89.594 Y50.202 E150.97340
G1 X90.492 Y50.202 E151.00894
G1 X90.798 Y50.508 E151.02610
M106 S249.9
G1 Z0.950 F6000.000
G1 X91.179 Y87.179 F6000.000
G1 X78.821 Y87.179 E151.51034 F6000.000
G1 X78.821 Y49.821 E152.97416
G1 X91.179 Y49.821 E153.45839
G1 X91.179 Y87.119 E154.91987
G1 X91.807 Y87.807 F6000.000
G1 X78.193 Y87.807 E155.45334 F6000.000
G1 X78.193 Y49.193 E156.96640
G1 X91.807 Y49.193 E157.49987
G1 X91.807 Y87.747 E159.01058
G1 X92.300 Y88.300 F6000.000
G1 X77.700 Y88.300 E159.33570 F3000.000
G1 X77.700 Y48.700 E160.21754
G1 X92.300 Y48.700 E160.54266
G1 X92.300 Y88.240 E161.42315
G1 X91.954 Y88.100 F6000.000
G1 X90.645 Y86.645 F6000.000
G1 X90.645 Y86.109 E161.44416 F6000.000
G1 X90.109 Y86.645 E161.47387
G1 X90.645 Y86.645 E161.49488
G1 X88.080 Y86.645 F6000.000
G1 X86.877 Y86.323 E161.54370 F6000.000
G1 X86.554 Y86.645 E161.56156
G1 X88.080 Y86.645 E161.62135
G1 X90.645 Y74.322 F6000.000
G1 X90.129 Y74.184 E161.64226 F6000.000
G1 X87.308 Y77.006 E161.79862
